rospo-icon-theme-classic-common/48x48/apps/org.perezdecastro.Revolt.svg

<svg height="48" viewBox="0 0 48 48" width="48" xmlns="http://www.w3.org/2000/svg"><circle cx="24" cy="25" opacity=".2" r="20"/><circle cx="24" cy="24" fill="#4f4f4f" r="20"/><path d="m24 8a3 3 0 0 0 -3 3 3 3 0 0 0 3 3 3 3 0 0 0 3-3 3 3 0 0 0 -3-3zm-7.070312 1.8769531a3 3 0 0 0 -1.429688.4003909 3 3 0 0 0 -1.097656 4.097656 3 3 0 0 0 4.097656 1.099609 3 3 0 0 0 1.097656-4.099609 3 3 0 0 0 -2.667968-1.4980469zm13.929687.00195a3 3 0 0 0 -2.457031 1.4960969 3 3 0 0 0 1.097656 4.099609 3 3 0 0 0 4.097656-1.099609 3 3 0 0 0 -1.097656-4.097656 3 3 0 0 0 -1.640625-.3984378zm5.193359 5.1210969a3 3 0 0 0 -1.427734.402344 3 3 0 0 0 -1.099609 4.097656 3 3 0 0 0 4.099609 1.097656 3 3 0 0 0 1.097656-4.097656 3 3 0 0 0 -2.669922-1.5zm-24.318359.0039a3 3 0 0 0 -2.4570312 1.4961 3 3 0 0 0 1.0976562 4.097656 3 3 0 0 0 4.099609-1.097656 3 3 0 0 0 -1.099609-4.097656 3 3 0 0 0 -1.640625-.398438zm-1.734375 6.9961a3 3 0 0 0 -3 3 3 3 0 0 0 3 3 3 3 0 0 0 3-3 3 3 0 0 0 -3-3zm28 0a3 3 0 0 0 -3 3 3 3 0 0 0 3 3 3 3 0 0 0 3-3 3 3 0 0 0 -3-3zm-26.195312 7a3 3 0 0 0 -1.429688.402344 3 3 0 0 0 -1.0976562 4.097656 3 3 0 0 0 4.0976562 1.097656 3 3 0 0 0 1.099609-4.097656 3 3 0 0 0 -2.669921-1.5zm24.177734.0039a3 3 0 0 0 -2.457031 1.4961 3 3 0 0 0 1.099609 4.097656 3 3 0 0 0 4.097656-1.097656 3 3 0 0 0 -1.097656-4.097656 3 3 0 0 0 -1.642578-.398438zm-5.052734 5.1211a3 3 0 0 0 -1.429688.400391 3 3 0 0 0 -1.097656 4.099609 3 3 0 0 0 4.097656 1.097656 3 3 0 0 0 1.097656-4.097656 3 3 0 0 0 -2.667968-1.5zm-14.070313.002a3 3 0 0 0 -2.457031 1.498 3 3 0 0 0 1.097656 4.097656 3 3 0 0 0 4.097656-1.097656 3 3 0 0 0 -1.097656-4.099609 3 3 0 0 0 -1.640625-.398438zm7.140625 1.873a3 3 0 0 0 -3 3 3 3 0 0 0 3 3 3 3 0 0 0 3-3 3 3 0 0 0 -3-3z" opacity=".2"/><path d="m24 4a20 20 0 0 0 -20 20 20 20 0 0 0  .0215.582 20 20 0 0 1 19.9785-19.582 20 20 0 0 1 19.979 19.418 20 20 0 0 0  .021-.418 20 20 0 0 0 -20-20z" fill="#fff" opacity=".1"/><path d="m24 7a3 3 0 0 0 -3 3 3 3 0 0 0 3 3 3 3 0 0 0 3-3 3 3 0 0 0 -3-3zm-7.070312 1.8769531a3 3 0 0 0 -1.429688.4003907 3 3 0 0 0 -1.097656 4.0976562 3 3 0 0 0 4.097656 1.099609 3 3 0 0 0 1.097656-4.099609 3 3 0 0 0 -2.667968-1.4980469zm13.929687.0019531a3 3 0 0 0 -2.457031 1.4960938 3 3 0 0 0 1.097656 4.099609 3 3 0 0 0 4.097656-1.099609 3 3 0 0 0 -1.097656-4.0976562 3 3 0 0 0 -1.640625-.3984376zm5.193359 5.1210938a3 3 0 0 0 -1.427734.402344 3 3 0 0 0 -1.099609 4.097656 3 3 0 0 0 4.099609 1.097656 3 3 0 0 0 1.097656-4.097656 3 3 0 0 0 -2.669922-1.5zm-24.318359.003906a3 3 0 0 0 -2.4570312 1.496094 3 3 0 0 0 1.0976562 4.097656 3 3 0 0 0 4.099609-1.097656 3 3 0 0 0 -1.099609-4.097656 3 3 0 0 0 -1.640625-.398438zm-1.734375 6.996094a3 3 0 0 0 -3 3 3 3 0 0 0 3 3 3 3 0 0 0 3-3 3 3 0 0 0 -3-3zm28 0a3 3 0 0 0 -3 3 3 3 0 0 0 3 3 3 3 0 0 0 3-3 3 3 0 0 0 -3-3zm-26.195312 7a3 3 0 0 0 -1.429688.402344 3 3 0 0 0 -1.0976562 4.097656 3 3 0 0 0 4.0976562 1.097656 3 3 0 0 0 1.099609-4.097656 3 3 0 0 0 -2.669921-1.5zm24.177734.003906a3 3 0 0 0 -2.457031 1.496094 3 3 0 0 0 1.099609 4.097656 3 3 0 0 0 4.097656-1.097656 3 3 0 0 0 -1.097656-4.097656 3 3 0 0 0 -1.642578-.398438zm-5.052734 5.121094a3 3 0 0 0 -1.429688.400391 3 3 0 0 0 -1.097656 4.099609 3 3 0 0 0 4.097656 1.097656 3 3 0 0 0 1.097656-4.097656 3 3 0 0 0 -2.667968-1.5zm-14.070313.001953a3 3 0 0 0 -2.457031 1.498047 3 3 0 0 0 1.097656 4.097656 3 3 0 0 0 4.097656-1.097656 3 3 0 0 0 -1.097656-4.099609 3 3 0 0 0 -1.640625-.398438zm7.140625 1.873047a3 3 0 0 0 -3 3 3 3 0 0 0 3 3 3 3 0 0 0 3-3 3 3 0 0 0 -3-3z" fill="#fff"/><circle cx="24" cy="24" opacity=".3" r="7"/><path d="m20 13a8 8 0 0 1 -8 8 8 8 0 0 1 -7.9999993-8 8 8 0 0 1 7.9999993-7.9999995 8 8 0 0 1 8 7.9999995z" opacity=".2"/><path d="m20 12a8 8 0 0 1 -8 8 8 8 0 0 1 -7.9999993-8 8 8 0 0 1 7.9999993-7.9999995 8 8 0 0 1 8 7.9999995z" fill="#ffae4a"/><path d="m32.736383 28.000681c-.461895-.01591-.523306.245438-.659644.937625-.686116 4.557123 3.314344 7.08556 8.570562 9.055482 1.53621.14177 1.853978-2.177434 2.347495-3.436818.639493-1.631891 1.66406-3.095577.415356-3.768088l-10.061928-2.684568c-.261246-.06107-.457875-.09834-.611841-.103633z" opacity=".2"/><path d="m32.736383 27.000681c-.461895-.01591-.523306.245438-.659644.937625-.686116 4.557123 3.314344 7.08556 8.570562 9.055482 1.53621.14177 1.853978-2.177434 2.347495-3.436818.639493-1.631891 1.66406-3.095577.415356-3.768088l-10.061928-2.684568c-.261246-.06107-.457875-.09834-.611841-.103633z" fill="#8e8e8e"/><path d="m12 4a8 8 0 0 0 -8 8 8 8 0 0 0  .0214844.576172 8 8 0 0 1 7.9785156-7.576172 8 8 0 0 1 7.978516 7.423828 8 8 0 0 0  .021484-.423828 8 8 0 0 0 -8-8z" fill="#fff" opacity=".2"/><path d="m32.736328 27c-.461895-.01591-.523818.245313-.660156.9375-.080644.535629-.09015 1.041473-.046875 1.523438.012695-.173005.019896-.34425.046875-.523438.136338-.692187.198261-.95341.660156-.9375.153966.005293.350082.042446.611328.103516l10.0625 2.685546c.26423.142306.410253.325949.496094.533204.183009-.65811.131146-1.195393-.496094-1.533204l-10.0625-2.685546c-.261246-.06107-.457362-.098223-.611328-.103516z" fill="#fff" opacity=".2"/></svg>

<svg xmlns="http://www.w3.org/2000/svg" width="48" height="48" version="1.1" viewBox="0 0 48 48">
 <circle style="opacity:0.2" cx="24" cy="25" r="20"/>
 <circle style="fill:#4f4f4f" cx="24" cy="24" r="20"/>
 <path d="m 24,8 a 3,3 0 0 0 -3,3 3,3 0 0 0 3,3 3,3 0 0 0 3,-3 3,3 0 0 0 -3,-3 z M 16.929688,9.8769531 A 3,3 0 0 0 15.5,10.277344 3,3 0 0 0 14.402344,14.375 3,3 0 0 0 18.5,15.474609 3,3 0 0 0 19.597656,11.375 3,3 0 0 0 16.929688,9.8769531 Z m 13.929687,0.00195 A 3,3 0 0 0 28.402344,11.375 3,3 0 0 0 29.5,15.474609 3,3 0 0 0 33.597656,14.375 3,3 0 0 0 32.5,10.277344 3,3 0 0 0 30.859375,9.8789062 Z M 36.052734,15 A 3,3 0 0 0 34.625,15.402344 3,3 0 0 0 33.525391,19.5 3,3 0 0 0 37.625,20.597656 3,3 0 0 0 38.722656,16.5 3,3 0 0 0 36.052734,15 Z m -24.318359,0.0039 A 3,3 0 0 0 9.2773438,16.5 3,3 0 0 0 10.375,20.597656 3,3 0 0 0 14.474609,19.5 3,3 0 0 0 13.375,15.402344 3,3 0 0 0 11.734375,15.003906 Z M 10,22 a 3,3 0 0 0 -3,3 3,3 0 0 0 3,3 3,3 0 0 0 3,-3 3,3 0 0 0 -3,-3 z m 28,0 a 3,3 0 0 0 -3,3 3,3 0 0 0 3,3 3,3 0 0 0 3,-3 3,3 0 0 0 -3,-3 z M 11.804688,29 A 3,3 0 0 0 10.375,29.402344 3,3 0 0 0 9.2773438,33.5 3,3 0 0 0 13.375,34.597656 3,3 0 0 0 14.474609,30.5 3,3 0 0 0 11.804688,29 Z m 24.177734,0.0039 A 3,3 0 0 0 33.525391,30.5 3,3 0 0 0 34.625,34.597656 3,3 0 0 0 38.722656,33.5 3,3 0 0 0 37.625,29.402344 3,3 0 0 0 35.982422,29.003906 Z M 30.929688,34.125 A 3,3 0 0 0 29.5,34.525391 3,3 0 0 0 28.402344,38.625 3,3 0 0 0 32.5,39.722656 3,3 0 0 0 33.597656,35.625 a 3,3 0 0 0 -2.667968,-1.5 z m -14.070313,0.002 A 3,3 0 0 0 14.402344,35.625 3,3 0 0 0 15.5,39.722656 3,3 0 0 0 19.597656,38.625 3,3 0 0 0 18.5,34.525391 3,3 0 0 0 16.859375,34.126953 Z M 24,36 a 3,3 0 0 0 -3,3 3,3 0 0 0 3,3 3,3 0 0 0 3,-3 3,3 0 0 0 -3,-3 z" style="opacity:0.2"/>
 <path style="opacity:0.1;fill:#ffffff" d="M 24 4 A 20 20 0 0 0 4 24 A 20 20 0 0 0 4.0215 24.582 A 20 20 0 0 1 24 5 A 20 20 0 0 1 43.979 24.418 A 20 20 0 0 0 44 24 A 20 20 0 0 0 24 4 z"/>
 <path style="fill:#ffffff" d="M 24 7 A 3 3 0 0 0 21 10 A 3 3 0 0 0 24 13 A 3 3 0 0 0 27 10 A 3 3 0 0 0 24 7 z M 16.929688 8.8769531 A 3 3 0 0 0 15.5 9.2773438 A 3 3 0 0 0 14.402344 13.375 A 3 3 0 0 0 18.5 14.474609 A 3 3 0 0 0 19.597656 10.375 A 3 3 0 0 0 16.929688 8.8769531 z M 30.859375 8.8789062 A 3 3 0 0 0 28.402344 10.375 A 3 3 0 0 0 29.5 14.474609 A 3 3 0 0 0 33.597656 13.375 A 3 3 0 0 0 32.5 9.2773438 A 3 3 0 0 0 30.859375 8.8789062 z M 36.052734 14 A 3 3 0 0 0 34.625 14.402344 A 3 3 0 0 0 33.525391 18.5 A 3 3 0 0 0 37.625 19.597656 A 3 3 0 0 0 38.722656 15.5 A 3 3 0 0 0 36.052734 14 z M 11.734375 14.003906 A 3 3 0 0 0 9.2773438 15.5 A 3 3 0 0 0 10.375 19.597656 A 3 3 0 0 0 14.474609 18.5 A 3 3 0 0 0 13.375 14.402344 A 3 3 0 0 0 11.734375 14.003906 z M 10 21 A 3 3 0 0 0 7 24 A 3 3 0 0 0 10 27 A 3 3 0 0 0 13 24 A 3 3 0 0 0 10 21 z M 38 21 A 3 3 0 0 0 35 24 A 3 3 0 0 0 38 27 A 3 3 0 0 0 41 24 A 3 3 0 0 0 38 21 z M 11.804688 28 A 3 3 0 0 0 10.375 28.402344 A 3 3 0 0 0 9.2773438 32.5 A 3 3 0 0 0 13.375 33.597656 A 3 3 0 0 0 14.474609 29.5 A 3 3 0 0 0 11.804688 28 z M 35.982422 28.003906 A 3 3 0 0 0 33.525391 29.5 A 3 3 0 0 0 34.625 33.597656 A 3 3 0 0 0 38.722656 32.5 A 3 3 0 0 0 37.625 28.402344 A 3 3 0 0 0 35.982422 28.003906 z M 30.929688 33.125 A 3 3 0 0 0 29.5 33.525391 A 3 3 0 0 0 28.402344 37.625 A 3 3 0 0 0 32.5 38.722656 A 3 3 0 0 0 33.597656 34.625 A 3 3 0 0 0 30.929688 33.125 z M 16.859375 33.126953 A 3 3 0 0 0 14.402344 34.625 A 3 3 0 0 0 15.5 38.722656 A 3 3 0 0 0 19.597656 37.625 A 3 3 0 0 0 18.5 33.525391 A 3 3 0 0 0 16.859375 33.126953 z M 24 35 A 3 3 0 0 0 21 38 A 3 3 0 0 0 24 41 A 3 3 0 0 0 27 38 A 3 3 0 0 0 24 35 z"/>
 <circle style="opacity:0.3" cx="24" cy="24" r="7"/>
 <path d="M 20,13 A 8,8 0 0 1 12,21 8,8 0 0 1 4.0000007,13 8,8 0 0 1 12,5.0000005 8,8 0 0 1 20,13 Z" style="opacity:0.2"/>
 <path style="fill:#ffae4a" d="M 20,12 A 8,8 0 0 1 12,20 8,8 0 0 1 4.0000007,12 8,8 0 0 1 12,4.0000005 8,8 0 0 1 20,12 Z"/>
 <path d="m 32.736383,28.000681 c -0.461895,-0.01591 -0.523306,0.245438 -0.659644,0.937625 -0.686116,4.557123 3.314344,7.08556 8.570562,9.055482 1.53621,0.14177 1.853978,-2.177434 2.347495,-3.436818 0.639493,-1.631891 1.66406,-3.095577 0.415356,-3.768088 L 33.348224,28.104314 c -0.261246,-0.06107 -0.457875,-0.09834 -0.611841,-0.103633 z" style="opacity:0.2"/>
 <path style="fill:#8e8e8e" d="m 32.736383,27.000681 c -0.461895,-0.01591 -0.523306,0.245438 -0.659644,0.937625 -0.686116,4.557123 3.314344,7.08556 8.570562,9.055482 1.53621,0.14177 1.853978,-2.177434 2.347495,-3.436818 0.639493,-1.631891 1.66406,-3.095577 0.415356,-3.768088 L 33.348224,27.104314 c -0.261246,-0.06107 -0.457875,-0.09834 -0.611841,-0.103633 z"/>
 <path style="opacity:0.2;fill:#ffffff" d="M 12 4 A 8 8 0 0 0 4 12 A 8 8 0 0 0 4.0214844 12.576172 A 8 8 0 0 1 12 5 A 8 8 0 0 1 19.978516 12.423828 A 8 8 0 0 0 20 12 A 8 8 0 0 0 12 4 z"/>
 <path style="fill:#ffffff;opacity:0.2" d="M 32.736328 27 C 32.274433 26.98409 32.21251 27.245313 32.076172 27.9375 C 31.995528 28.473129 31.986022 28.978973 32.029297 29.460938 C 32.041992 29.287933 32.049193 29.116688 32.076172 28.9375 C 32.21251 28.245313 32.274433 27.98409 32.736328 28 C 32.890294 28.005293 33.08641 28.042446 33.347656 28.103516 L 43.410156 30.789062 C 43.674386 30.931368 43.820409 31.115011 43.90625 31.322266 C 44.089259 30.664156 44.037396 30.126873 43.410156 29.789062 L 33.347656 27.103516 C 33.08641 27.042446 32.890294 27.005293 32.736328 27 z"/>
</svg>
